X: 403
Q: "Slowish"
M: C
L: 1/8
K: G
V: 1
(gf).e.d efgB | cBAG {G}E2DE | G2g2 decd | B3A G2 :|
ef |\
gfed efge | agfe fgaf | Tfefa bgab | Te4 d2ga |\
(ba).g.e degB | cBAG {F}E2DE | G2g2 decd | {c}~B3A G2 |]
V: 2 clef=bass middle=d
z2 |\
b2g2 c'2b2 | a3b c'2bc' | b3c' d'2d2 | g2d2 G2 :|
z2 |\


